suite-common/icons/assets/icons/checkActive.svg

<svg xmlns="http://www.w3.org/2000/svg" viewBox="0 0 16 16">
  <path fill-rule="evenodd" d="M7.2 2.064a6.2 6.2 0 0 0-2.219.769c-.761.43-1.517 1.154-2.034 1.949a6 6 0 0 0-.938 3.005c-.094 2.412 1.36 4.729 3.57 5.69 1.178.513 2.365.645 3.59.401a6.05 6.05 0 0 0 4.01-2.865c.342-.579.628-1.388.759-2.146.064-.375.064-1.359 0-1.734-.234-1.354-.784-2.434-1.711-3.36-.517-.517-.891-.785-1.581-1.13a5.5 5.5 0 0 0-1.681-.553c-.354-.057-1.46-.073-1.765-.026m3.869 3.531c.293.142.409.35.394.706l-.01.224-.13.158c-.277.333-4.28 4.277-4.342 4.277-.034 0-2.217-2.166-2.35-2.332-.082-.103-.084-.113-.084-.374 0-.224.01-.285.059-.377.124-.233.347-.356.647-.356.337 0 .376.028 1.245.889l.485.48 1.209-1.186c1.362-1.338 1.994-1.947 2.121-2.044a1 1 0 0 1 .187-.103.88.88 0 0 1 .569.038"/>
</svg>

<svg xmlns="http://www.w3.org/2000/svg" viewBox="0 0 16 16"><path d="M7.200 2.064 C 6.378 2.190,5.708 2.422,4.981 2.833 C 4.220 3.263,3.464 3.987,2.947 4.782 C 2.381 5.652,2.051 6.710,2.009 7.787 C 1.915 10.199,3.369 12.516,5.579 13.477 C 6.757 13.990,7.944 14.122,9.169 13.878 C 10.838 13.545,12.305 12.497,13.179 11.013 C 13.521 10.434,13.807 9.625,13.938 8.867 C 14.002 8.492,14.002 7.508,13.938 7.133 C 13.704 5.779,13.154 4.699,12.227 3.773 C 11.710 3.256,11.336 2.988,10.646 2.643 C 10.053 2.347,9.567 2.187,8.965 2.090 C 8.611 2.033,7.505 2.017,7.200 2.064 M11.069 5.595 C 11.362 5.737,11.478 5.945,11.463 6.301 L 11.453 6.525 11.323 6.683 C 11.046 7.016,7.043 10.960,6.981 10.960 C 6.947 10.960,4.764 8.794,4.631 8.628 C 4.549 8.525,4.547 8.515,4.547 8.254 C 4.547 8.030,4.557 7.969,4.606 7.877 C 4.730 7.644,4.953 7.521,5.253 7.521 C 5.590 7.521,5.629 7.549,6.498 8.410 L 6.983 8.890 8.192 7.704 C 9.554 6.366,10.186 5.757,10.313 5.660 C 10.361 5.624,10.445 5.577,10.500 5.557 C 10.644 5.503,10.919 5.521,11.069 5.595 " stroke="none" fill-rule="evenodd" fill="black"></path></svg>
